16x16/apps/tizen-studio-certificatemanager.svg

<svg xmlns="http://www.w3.org/2000/svg" width="16" height="16" version="1.1">
 <path style="fill:#00a1f1" d="m 0.8,0 12.523827,1.8761726 c 0.4432,0 0.8,0.3568 0.8,0.8000002 L 16,15.2 C 16,15.6432 15.6432,16 15.2,16 H 0.8 C 0.3568,16 0,15.6432 0,15.2 V 0.8 C 0,0.3568 0.3568,0 0.8,0 Z"/>
 <path style="fill:#008aee" d="M 0.8,0 C 0.5784,0 0.37819376,0.08899376 0.23359376,0.23359376 L 15.766406,15.766406 C 15.911006,15.621806 16,15.4216 16,15.2 V 0.8 C 16,0.3568 15.6432,0 15.2,0 Z"/>
 <path style="fill:#f4f4f7" d="M 8.4507812,2 7.9328124,2.4125 7.4,2.0195312 7.0070312,2.5515624 6.3898436,2.3101564 6.1476564,2.9265624 5.4898436,2.8523436 5.4156248,3.5101564 4.7609376,3.6093752 4.8593752,4.2648436 4.2523436,4.5296876 4.5179688,5.1367188 4,5.5492188 4.4125,6.0671876 4.0195312,6.6 4.5515624,6.9929688 4.3101564,7.6101564 4.9265624,7.8523436 4.8523436,8.5101564 5.5101564,8.5843752 5.6093752,9.2390624 6.2648436,9.1406248 6.5296876,9.747656 7.1367188,9.4820312 7.5492188,10 8.0671876,9.5875 8.6,9.980469 8.9929688,9.4484376 9.6101564,9.689844 9.8523436,9.0734376 10.510156,9.1476564 10.584375,8.4898436 11.239062,8.3906248 11.140625,7.7351564 11.747656,7.4703124 11.482031,6.8632812 12,6.4507812 11.5875,5.9328124 11.980469,5.4 11.448438,5.0070312 11.689844,4.3898436 11.073438,4.1476564 11.147656,3.4898436 10.489844,3.4156248 10.390625,2.7609376 9.7351564,2.8593752 9.4703124,2.2523436 8.8632812,2.5179688 Z M 8,4 A 2,2 0 0 1 10,6 2,2 0 0 1 8,8 2,2 0 0 1 6,6 2,2 0 0 1 8,4 Z M 6.0210936,9.5820312 6,9.5851564 V 13.2 l 2,-1.6 2,1.6 V 9.792188 L 9.8367188,10.207812 9.1328124,9.932812 8.6843752,10.539844 8.0765624,10.091406 7.4859376,10.5625 7.0156248,9.971875 6.3226564,10.274219 Z"/>
</svg>

<svg xmlns="http://www.w3.org/2000/svg" width="16" height="16"><path style="fill:#00a1f1" d="m.8 0 12.524 1.876c.443 0 .8.357.8.8L16 15.2c0 .443-.357.8-.8.8H.8a.798.798 0 0 1-.8-.8V.8C0 .357.357 0 .8 0z"/><path style="fill:#008aee" d="M.8 0a.798.798 0 0 0-.566.234l15.532 15.532A.798.798 0 0 0 16 15.2V.8c0-.443-.357-.8-.8-.8z"/><path style="fill:#f4f4f7" d="m8.45 2-.517.413L7.4 2.02l-.393.532-.617-.242-.242.617-.658-.075-.074.658-.655.1.098.655-.607.265.266.607L4 5.549l.412.518-.392.533.532.393-.242.617.617.242-.075.658.658.074.1.655.655-.098.265.607.607-.266.412.518.518-.412.533.392.393-.532.617.242.242-.617.658.075.074-.658.655-.1-.098-.655.607-.265-.266-.607.518-.412-.412-.518.392-.533-.532-.393.242-.617-.617-.242.075-.658-.658-.074-.1-.655-.655.098-.265-.607-.607.266zM8 4a2 2 0 0 1 2 2 2 2 0 0 1-2 2 2 2 0 0 1-2-2 2 2 0 0 1 2-2zM6.021 9.582 6 9.585V13.2l2-1.6 2 1.6V9.792l-.163.416-.704-.275-.449.607-.607-.449-.591.472-.47-.591-.693.302z"/></svg>
